X:673
T:Struan Robertson's Rant
M:4/4
L:1/8
K:G
|:d|"Em"E/E3/2G3/2A/ B3/2A/B3/2d/|"D"D3/2D/F3/2E/ E/F/G/A/ A/F3/2|\
"Em"E/E3/2G3/2A/ B3/2A/B/d3/2|"D"d3/2B/d3/2F/ "Em"E/E3/2 E:|
|:g|"Em"e3/2f/g3/2e/ b3/2e/g3/2e/|"D"f3/2e/d3/2f/ a/g/f/e/ d3/2f/|\
"Em"e3/2f/g3/2e/ b3/2e/g3/2e/|"D"d3/2B/A3/2F/ "Em"E/E3/2 E:|
|:F|"Em"G3/2B/E3/2B/ G3/2B/E3/2B/|"D"F3/2A/D3/2A/ F3/2A/D3/2A/|\
"Em"G3/2B/E3/2B/ G/B3/2 E3/2g/|"D"d3/2B/A3/2F/ "Em"E/E3/2 E:|
|:f|"Em"g3/2b/e3/2b/ g3/2b/e3/2b/|"D"f3/2a/d3/2a/ f3/2a/d3/2a/|\
"Em"g3/2b/e3/2b/ g3/2b/e3/2b/|"D"f3/2d/a3/2d/ "Em"e/e3/2ef|
g3/2b/e3/2b/ g3/2b/e3/2b/|"D"f3/2a/d3/2a/ f3/2a/d3/2a/|\
"Em"g3/2b/e3/2b/ g3/2b/e3/2b/|"D"d3/4^c/B/A/ d3/2F/ "Em"E/E3/2 E:|
